X:1
T:With Me All the Way
T:With Me All the Way
T:Nellie Place Chandler
T:Nellie Place Chandler, 1907
T:Public Domain Courtesy of the Cyber Hymnal™
T:Public Domain Courtesy of the Cyber Hymnal™
C:Nellie Place Chandler
Z:Public Domain
Z:Courtesy of the Cyber Hymnal™
%%score ( 1 2 ) ( 3 4 )
L:1/8
Q:1/4=98
M:4/4
K:G
V:1 treble 
V:2 treble 
V:3 bass 
V:4 bass 
V:1
 [B,D]>[B,G] | [DB]>[DB] [^C^A]>[DB] [B,D]2 [B,G]2 | F6 D>[DF] | [Fc]>[Fc] [^EB]>[Fc] D2 [Dc]2 | %4
w: 1.~There’s a|song with- in my heart to-|day, And re-|joic- ing I go on my|
w: 2.~Oh, this|song shall be a song of|trust, For His|ways are al- ways right and|
w: 3.~Thro’ His|grace I’ll sing the vic- tor’s|song, In His|strength for right be firm and|
 B6 [B,D]>[B,G] | [DB]>[DB] [^C^A]>[DB] [B,G]2 [=C=A]>[DB] | %6
w: way; For I’ve|found a friend and guide, And what-|
w: just; And I|do not walk a- lone, Since He’s|
w: strong; Tho’ temp-|ta- tions may as- sail, In His|
 [Ed]>[Ec] [EB]>[Ec] [CE]2 [^A,F]>[A,G] | [B,D]>[B,G] [DB]>[Ec] [^CB]<[CA] [DB]>[=CA] | [B,G]6 || %9
w: ev- er may be- tide, He has|prom- ised to be with me all the|way.|
w: called me for His own; He has|prom- ised to be with me all the|way.|
w: name I shall pre- vail; He has|prom- ised to be with me all the|way.|
"^Refrain" [DG]>[DB] | d>d ^c>d e>d c>d | c4- [Fc]2 D>[DF] | c>c B>c d<c A>^A | %13
w: ||||
w: For my|Sav- ior will be with me all the|way! Is the song|my heart is sing- ing all the day;|
w: ||||
 B4- [GB]2 [B,D]>[B,G] | [DB]>[DB] [^C^A]>[DB] [B,G]2 [=C=A]>[DB] | %15
w: ||
w: Then what e- vil|* shall I fear, With my friend|
w: ||
 [Ed]>[Ec] [EB]>[Ec] [CE]2 [^A,F]>[A,G] | [B,D]>[B,G] [DB]>[Ec] [^CB]<[CA] [DB]>[=CA] | [B,G]6 |] %18
w: |||
w: and guide so near? He has prom-|ised to be with me all the way.||
w: |||
V:2
 x2 | x8 | (C2 C2 C2) D3/2 x/ | x4 D2 x2 | (D2 D2 D2) x2 | x8 | x8 | x8 | x6 || x2 | G2 G2 G2 G2 | %11
 (F>FD>F x/ D3/2) x2 | F2 F2 D2 F2 | G>GG>G x4 | x8 | x8 | x8 | x6 |] %18
V:3
 [G,,G,]>[G,,G,] | [G,,G,]>[G,,G,] [G,,G,]>[G,,G,] [G,,G,]2 [G,,G,]2 | %2
 ([A,,D,]2 [A,,D,]2 [D,A,]2) [D,F,]>[D,A,] | [D,A,]>[D,A,] [D,G,]>[D,A,] [D,F,]2 [D,A,]2 | %4
 G,2 ([G,,G,]2 [G,,G,]2) [G,,G,]>[G,,G,] | [G,,G,]>[G,,G,] [G,,G,]>[G,,G,] [G,,G,]2 G,>G, | %6
 [C,G,]>[C,G,] [C,G,]>[C,G,] [C,G,]2 [^C,G,]>[C,G,] | %7
 [D,G,]>[D,G,] [D,G,]>[D,G,] [A,,G,]<[A,,G,] [D,F,]>[D,F,] | [G,,G,]6 || [G,B,]>[G,D] | %10
 B,>B, ^A,>B, C>B, A,>B, | A,4 [D,A,]2 [D,F,]>[D,A,] | A,>A, ^G,>A, B,<A, C>C | %13
 D4- ([G,,D]2 [G,,G,]>)[G,,G,] | [G,,G,]>[G,,G,] [G,,G,]>[G,,G,] [G,,G,]2 G,>G, | %15
 [C,G,]>[C,G,] [C,G,]>[C,G,] [C,G,]2 [^C,G,]>[C,G,] | %16
 [D,G,]>[D,G,] [D,G,]>[D,G,] [A,,G,]<[A,,G,] [D,F,]>[D,F,] | [G,,G,]6 |] %18
V:4
 x2 | x8 | x8 | x8 | G,2 x6 | x6 G,>G, | x8 | x8 | x6 || x2 | G,2 G,2 G,2 G,2 | D,>D,F,>A,- x4 | %12
 D,2 D,2 D,2 D,2 | G,>G,D,>B,, x4 | x6 G,>G, | x8 | x8 | x6 |] %18

